ix/music-filter_bulk.svg

<svg viewBox="0 0 24 24" fill="none" xmlns="http://www.w3.org/2000/svg" height="1em" width="1em">
  <path opacity="0.4" d="M22 3.75H2C1.59 3.75 1.25 3.41 1.25 3C1.25 2.59 1.59 2.25 2 2.25H22C22.41 2.25 22.75 2.59 22.75 3C22.75 3.41 22.41 3.75 22 3.75Z" fill="#292D32"/>
  <path opacity="0.4" d="M11 9.75H2C1.59 9.75 1.25 9.41 1.25 9C1.25 8.59 1.59 8.25 2 8.25H11C11.41 8.25 11.75 8.59 11.75 9C11.75 9.41 11.41 9.75 11 9.75Z" fill="#292D32"/>
  <path opacity="0.4" d="M8 15.75H2C1.59 15.75 1.25 15.41 1.25 15C1.25 14.59 1.59 14.25 2 14.25H8C8.41 14.25 8.75 14.59 8.75 15C8.75 15.41 8.41 15.75 8 15.75Z" fill="#292D32"/>
  <path opacity="0.4" d="M6 21.75H2C1.59 21.75 1.25 21.41 1.25 21C1.25 20.59 1.59 20.25 2 20.25H6C6.41 20.25 6.75 20.59 6.75 21C6.75 21.41 6.41 21.75 6 21.75Z" fill="#292D32"/>
  <path d="M21.8602 7.68019C21.2702 7.23019 20.4602 7.14022 19.5102 7.40022L15.1602 8.58021C13.9902 8.90021 13.2702 9.85018 13.2702 11.0502V13.6002V17.2802C12.8502 17.0402 12.3602 16.8902 11.8402 16.8902C10.2302 16.8902 8.91016 18.2002 8.91016 19.8202C8.91016 21.4302 10.2202 22.7502 11.8402 22.7502C13.4602 22.7502 14.7702 21.4402 14.7702 19.8202V14.1702L21.2502 12.4002V15.8302C20.8302 15.5902 20.3402 15.4402 19.8202 15.4402C18.2102 15.4402 16.8902 16.7502 16.8902 18.3702C16.8902 19.9802 18.2002 21.3002 19.8202 21.3002C21.4402 21.3002 22.7502 19.9902 22.7502 18.3702V11.4202V9.87019C22.7502 8.86019 22.4502 8.12019 21.8602 7.68019ZM11.8402 21.2502C11.0502 21.2502 10.4102 20.6102 10.4102 19.8202C10.4102 19.0302 11.0502 18.3902 11.8402 18.3902C12.6302 18.3902 13.2702 19.0302 13.2702 19.8202C13.2702 20.6102 12.6302 21.2502 11.8402 21.2502ZM19.8202 19.8002C19.0302 19.8002 18.3902 19.1602 18.3902 18.3702C18.3902 17.5802 19.0302 16.9402 19.8202 16.9402C20.6102 16.9402 21.2502 17.5802 21.2502 18.3702C21.2502 19.1602 20.6102 19.8002 19.8202 19.8002Z" fill="#292D32"/>
</svg>

<svg viewBox="0 0 24 24" fill="none" xmlns="http://www.w3.org/2000/svg" height="1em" width="1em">
  <path opacity=".4" d="M22 3.75H2c-.41 0-.75-.34-.75-.75s.34-.75.75-.75h20c.41 0 .75.34.75.75s-.34.75-.75.75Zm-11 6H2c-.41 0-.75-.34-.75-.75s.34-.75.75-.75h9c.41 0 .75.34.75.75s-.34.75-.75.75Zm-3 6H2c-.41 0-.75-.34-.75-.75s.34-.75.75-.75h6c.41 0 .75.34.75.75s-.34.75-.75.75Zm-2 6H2c-.41 0-.75-.34-.75-.75s.34-.75.75-.75h4c.41 0 .75.34.75.75s-.34.75-.75.75Z" fill="#292D32"/>
  <path d="M21.86 7.68c-.59-.45-1.4-.54-2.35-.28l-4.35 1.18c-1.17.32-1.89 1.27-1.89 2.47v6.23c-.42-.24-.91-.39-1.43-.39-1.61 0-2.93 1.31-2.93 2.93 0 1.61 1.31 2.93 2.93 2.93s2.93-1.31 2.93-2.93v-5.65l6.48-1.77v3.43c-.42-.24-.91-.39-1.43-.39-1.61 0-2.93 1.31-2.93 2.93 0 1.61 1.31 2.93 2.93 2.93s2.93-1.31 2.93-2.93v-8.5c0-1.01-.3-1.75-.89-2.19ZM11.84 21.25a1.43 1.43 0 1 1 0-2.86 1.43 1.43 0 0 1 0 2.86Zm7.98-1.45a1.43 1.43 0 1 1 0-2.86 1.43 1.43 0 0 1 0 2.86Z" fill="#292D32"/>
</svg>
